packages/icons/icons/cc-on.svg

<svg xmlns="http://www.w3.org/2000/svg" viewBox="0 0 24 24"><path d="M5 4c-.6 0-1 .2-1.4.6C3.2 5 3 5.4 3 6v12c0 .6.2 1 .6 1.4.4.4.8.6 1.4.6h14c.5 0 1-.2 1.4-.6.4-.4.6-.9.6-1.4V6c0-.5-.2-1-.6-1.4-.4-.4-.9-.6-1.4-.6H5m-.5 1.5h15v13h-15v-13M7 9c-.3 0-.5.1-.7.3-.2.2-.3.4-.3.7v4c0 .3.1.5.3.7.2.2.4.3.7.3h3c.3 0 .5-.1.7-.3.2-.2.3-.4.3-.7v-1H9.5v.5h-2v-3h2v.5H11v-1c0-.3-.1-.5-.3-.7-.2-.2-.4-.3-.7-.3H7m7 0c-.3 0-.5.1-.7.3-.2.2-.3.4-.3.7v4c0 .3.1.5.3.7.2.2.4.3.7.3h3c.3 0 .5-.1.7-.3.2-.2.3-.4.3-.7v-1h-1.5v.5h-2v-3h2v.5H18v-1c0-.3-.1-.5-.3-.7-.2-.2-.4-.3-.7-.3h-3z" style="fill:#fff"/></svg>

<?xml version="1.0" encoding="utf-8"?>
<!-- Generator: Adobe Illustrator 27.0.1, SVG Export Plug-In . SVG Version: 6.00 Build 0)  -->
<svg version="1.1" id="Layer_1" xmlns="http://www.w3.org/2000/svg" xmlns:xlink="http://www.w3.org/1999/xlink" x="0px" y="0px"
	 viewBox="0 0 24 24" style="enable-background:new 0 0 24 24;" xml:space="preserve">
<style type="text/css">
	.st0{fill:#FFFFFF;}
</style>
<path class="st0" d="M5,4C4.4,4,4,4.2,3.6,4.6C3.2,5,3,5.4,3,6v12c0,0.6,0.2,1,0.6,1.4C4,19.8,4.4,20,5,20h14c0.5,0,1-0.2,1.4-0.6
	C20.8,19,21,18.5,21,18V6c0-0.5-0.2-1-0.6-1.4C20,4.2,19.5,4,19,4H5 M4.5,5.5h15v13h-15V5.5 M7,9C6.7,9,6.5,9.1,6.3,9.3
	C6.1,9.5,6,9.7,6,10v4c0,0.3,0.1,0.5,0.3,0.7C6.5,14.9,6.7,15,7,15h3c0.3,0,0.5-0.1,0.7-0.3c0.2-0.2,0.3-0.4,0.3-0.7v-1H9.5v0.5h-2
	v-3h2V11H11v-1c0-0.3-0.1-0.5-0.3-0.7C10.5,9.1,10.3,9,10,9H7 M14,9c-0.3,0-0.5,0.1-0.7,0.3C13.1,9.5,13,9.7,13,10v4
	c0,0.3,0.1,0.5,0.3,0.7c0.2,0.2,0.4,0.3,0.7,0.3h3c0.3,0,0.5-0.1,0.7-0.3c0.2-0.2,0.3-0.4,0.3-0.7v-1h-1.5v0.5h-2v-3h2V11H18v-1
	c0-0.3-0.1-0.5-0.3-0.7C17.5,9.1,17.3,9,17,9H14z"/>
</svg>
